svgs/sharp-thin/file-binary.svg

<svg xmlns="http://www.w3.org/2000/svg" viewBox="0 0 384 512"><!--! Font Awesome Pro 6.6.0 by @fontawesome - https://fontawesome.com License - https://fontawesome.com/license (Commercial License) Copyright 2024 Fonticons, Inc. --><path d="M16 496L16 16l192 0 0 152 0 8 8 0 152 0 0 320L16 496zM224 22.6L361.4 160 224 160l0-137.4zM224 0L16 0 0 0 0 16 0 496l0 16 16 0 352 0 16 0 0-16 0-336L224 0zM80 256l-8 0 0 8 0 144 0 8 8 0 96 0 8 0 0-8 0-144 0-8-8 0-96 0zm8 144l0-128 80 0 0 128-80 0zM240 256l-8 0 0 16 8 0 24 0 0 128-24 0-8 0 0 16 8 0 32 0 32 0 8 0 0-16-8 0-24 0 0-136 0-8-8 0-32 0z"/></svg>

<svg xmlns="http://www.w3.org/2000/svg" viewBox="0 0 384 512"><!--! Font Awesome Pro 6.5.2 by @fontawesome - https://fontawesome.com License - https://fontawesome.com/license (Commercial License) Copyright 2024 Fonticons, Inc. --><path d="M16 496V16H208V168v8h8H368V496H16zM224 22.6L361.4 160H224V22.6zM224 0H16 0V16 496v16H16 368h16V496 160L224 0zM80 256H72v8V408v8h8 96 8v-8V264v-8h-8H80zm8 144V272h80V400H88zM240 256h-8v16h8 24V400H240h-8v16h8 32 32 8V400h-8H280V264v-8h-8H240z"/></svg>
